src/assets/logo_round.svg

<svg version="1.2" xmlns="http://www.w3.org/2000/svg" viewBox="0 0 1024 1024" width="1024" height="1024"><defs><image width="800" height="800" id="img1" href="data:image/svg+xml;base64,PHN2ZyB2aWV3Qm94PSIwIDAgNDAwIDQwMCIgeG1sbnM9Imh0dHA6Ly93d3cudzMub3JnLzIwMDAvc3ZnIiB2ZXJzaW9uPSIxLjEiIGZpbGw9IiNmZjRmMDAiPjxwYXRoIGQ9IgpNIDAgMjAwCkMgMCAxNS45OTk5OTk5OTk5OTk5OTMsIDE1Ljk5OTk5OTk5OTk5OTk5MyAwLCAyMDAgMApTIDQwMCAxNS45OTk5OTk5OTk5OTk5OTMsIDQwMCAyMDAsIDM4NCA0MDAKMjAwIDQwMCwgMCAzODQsIDAgMjAwCiIgdHJhbnNmb3JtPSIKcm90YXRlKAowLAoyMDAsCjIwMAopCnRyYW5zbGF0ZSgKMCwKMAopCiI+PC9wYXRoPjwvc3ZnPg=="/></defs><style>.a{fill:#fff}</style><use  href="#img1" transform="matrix(1.28,0,0,1.28,1,0)"/><path class="a" d="m430.9 767h-353.2v-509.3h353.5v98.5h-233v105.3h214.4v96.4h-214.4v110.6h232.7zm191.3 0h-120.5v-509.2h120.5v199.8h203.4v-199.8h120.5v509.2h-120.5v-210.9h-203.4z"/></svg>

<svg xmlns="http://www.w3.org/2000/svg" width="1024" height="1024"><defs><image id="a" width="800" height="800" href="data:image/svg+xml;base64,PHN2ZyB2aWV3Qm94PSIwIDAgNDAwIDQwMCIgeG1sbnM9Imh0dHA6Ly93d3cudzMub3JnLzIwMDAvc3ZnIiB2ZXJzaW9uPSIxLjEiIGZpbGw9IiNmZjRmMDAiPjxwYXRoIGQ9IgpNIDAgMjAwCkMgMCAxNS45OTk5OTk5OTk5OTk5OTMsIDE1Ljk5OTk5OTk5OTk5OTk5MyAwLCAyMDAgMApTIDQwMCAxNS45OTk5OTk5OTk5OTk5OTMsIDQwMCAyMDAsIDM4NCA0MDAKMjAwIDQwMCwgMCAzODQsIDAgMjAwCiIgdHJhbnNmb3JtPSIKcm90YXRlKAowLAoyMDAsCjIwMAopCnRyYW5zbGF0ZSgKMCwKMAopCiI+PC9wYXRoPjwvc3ZnPg=="/></defs><use href="#a" transform="translate(1)scale(1.28)"/><path fill="#fff" d="M430.9 767H77.7V257.7h353.5v98.5h-233v105.3h214.4v96.4H198.2v110.6h232.7zm191.3 0H501.7V257.8h120.5v199.8h203.4V257.8h120.5V767H825.6V556.1H622.2z"/></svg>
